svg/casaos.svg

<svg xmlns="http://www.w3.org/2000/svg" width="700" height="700" fill="none" viewBox="0 0 700 700"><path fill="#4CE7FF" d="M180.08 574.45c93.933 0 170.08-76.147 170.08-170.08s-76.147-170.08-170.08-170.08S10 310.437 10 404.37s76.147 170.08 170.08 170.08" opacity=".95"/><path fill="#0067C2" d="M350.16 575.18c128.456 0 232.59-104.134 232.59-232.59C582.75 214.134 478.616 110 350.16 110c-128.456 0-232.59 104.134-232.59 232.59 0 128.456 104.134 232.59 232.59 232.59" opacity=".95"/><path fill="#4CE7FF" d="M520.24 574.45c93.932 0 170.08-76.147 170.08-170.08s-76.148-170.08-170.08-170.08c-93.933 0-170.08 76.147-170.08 170.08s76.147 170.08 170.08 170.08" opacity=".95"/></svg>

<svg xmlns="http://www.w3.org/2000/svg" fill="none" viewBox="0 0 700 700" height="700" width="700">
<path fill="#4CE7FF" d="M180.08 574.45C274.013 574.45 350.16 498.303 350.16 404.37C350.16 310.437 274.013 234.29 180.08 234.29C86.1474 234.29 10 310.437 10 404.37C10 498.303 86.1474 574.45 180.08 574.45Z" opacity="0.95"></path>
<path fill="#0067C2" d="M350.16 575.18C478.616 575.18 582.75 471.046 582.75 342.59C582.75 214.134 478.616 110 350.16 110C221.704 110 117.57 214.134 117.57 342.59C117.57 471.046 221.704 575.18 350.16 575.18Z" opacity="0.95"></path>
<path fill="#4CE7FF" d="M520.24 574.45C614.172 574.45 690.32 498.303 690.32 404.37C690.32 310.437 614.172 234.29 520.24 234.29C426.307 234.29 350.16 310.437 350.16 404.37C350.16 498.303 426.307 574.45 520.24 574.45Z" opacity="0.95"></path>
</svg>
